X:0407
T:Come then all ye social powers.
G:Jig
M:6/8
L:1/8
Q:3/8=120
P:ABA
N:Aird prints a da capo
I: :: || DC
Z:Jack Campin * www.campin.me.uk * 2009
K:G
P:A
 d2d  d2c|B2c d3  |efg gfe|Te3 d3 |\
(ded) d2c|B2c d2e |dec BcA| G3 G3::
P:B
 d2g  g2e|f2g a3  |b2g gag| f3 d3 |\
 d2g  g2e|f2g abc' b2g fef| g3 g3:|

